X: 167
T: No_8_Death_Song_of_Ga'witayac'.krn
%%abc-version 2.0
%%abcx-abcm2ps-target-version 5.9.1 (29 Sep 2008)
%%abc-creator hum2abc beta
%%abcx-conversion-date 2020/08/10 18:54:56
%%gracespace 0 6 6
%%humdrum-veritas 3383429919
%%humdrum-veritas-data 4211136461
%%linebreak <none>
%%barnumbers 0
L: 1/8
M: 3/4
%%staves {1 2}
V: 1 clef=bass
V: 2 clef=bass
K: C
[V:1] [K:clef=bass][M:3/4]E>D E>E E3/D/ | 
[V:2] [K:clef=bass][M:3/4]!accent!G,,G,, !accent!G,,G,, !accent!G,,G,, | 
[V:1] C2C2A,2 | 
[V:2] z6 | 
[V:1] C2(3:2:1CA,(3:2:1D/ C3/_A,/ | 
[V:2] z6 | 
[V:1] G,6 | 
[V:2] z6 | 
[V:1] C2(3:2:1CA,(3:2:1D/ C3/_A,/ | 
[V:2] z6 | 
[V:1] G,2G,4 | 
[V:2] z6 | 
[V:1] _A,2(3A,G,E, G,3/E,/ | 
[V:2] z6 | 
[V:1] C,2C,4 | 
[V:2] z6 | 
[V:1] E,2(3E,C,F,E,2 ||  
[V:2] z6 ||  
[V:1] [M:2/4]EE (3EEE | 
[V:2] [M:2/4]z4 | 
[V:1] E(3:2:2D/C C/A,3/ ||  
[V:2] z4 ||  
[V:1] [M:3/4]E>E (3EDE C3/_A,/ | 
[V:2] [M:3/4]z6 | 
[V:1] G,6 | 
[V:2] z6 | 
[V:1] C2(3CA,D C3/_A,/ | 
[V:2] z6 | 
[V:1] G,2G,2E,2 | 
[V:2] z6 | 
[V:1] G,>G, (3G,E,A, G,3/E,/ | 
[V:2] z6 | 
[V:1] C,2C,4 | 
[V:2] z6 | 
[V:1] E,2(3E,C,F,E,2 | 
[V:2] z6 | 
[V:1] C,2C,4 |]  
[V:2] z6 |]  


